src/assets/svg-icons/bell-icon-light.svg

<svg width="20" height="20" viewBox="0 0 20 20" fill="none" xmlns="http://www.w3.org/2000/svg">
<path d="M17.1907 13.3324C17.1259 13.2543 17.0622 13.1762 16.9997 13.1008C16.1403 12.0613 15.6204 11.434 15.6204 8.4914C15.6204 6.96797 15.2559 5.71797 14.5376 4.78047C14.0079 4.08789 13.2919 3.5625 12.3481 3.17422C12.336 3.16746 12.3251 3.1586 12.3161 3.14805C11.9766 2.01133 11.0477 1.25 10.0001 1.25C8.95242 1.25 8.0239 2.01133 7.68445 3.14687C7.67539 3.15704 7.6647 3.16562 7.65281 3.17226C5.45046 4.07891 4.38015 5.81836 4.38015 8.49023C4.38015 11.434 3.86101 12.0613 3.00086 13.0996C2.93836 13.175 2.87468 13.2516 2.80984 13.3312C2.64234 13.5332 2.53622 13.779 2.50403 14.0394C2.47184 14.2999 2.51493 14.5641 2.6282 14.8008C2.86922 15.3086 3.38289 15.6238 3.96922 15.6238H16.0352C16.6188 15.6238 17.129 15.309 17.3708 14.8035C17.4845 14.5667 17.528 14.3023 17.4961 14.0416C17.4642 13.7809 17.3582 13.5348 17.1907 13.3324Z" fill="#CAC9C9"/>
<path d="M9.99977 18.75C10.5642 18.7495 11.1181 18.5963 11.6025 18.3066C12.0869 18.0168 12.4839 17.6014 12.7513 17.1043C12.7639 17.0805 12.7701 17.0538 12.7694 17.0269C12.7686 16.9999 12.7609 16.9736 12.747 16.9506C12.7331 16.9275 12.7134 16.9084 12.69 16.8952C12.6665 16.8819 12.64 16.875 12.613 16.875H7.38727C7.36028 16.8749 7.33374 16.8818 7.31021 16.895C7.28669 16.9082 7.26698 16.9273 7.25302 16.9504C7.23905 16.9735 7.23131 16.9998 7.23053 17.0268C7.22976 17.0537 7.23598 17.0804 7.2486 17.1043C7.51599 17.6013 7.91291 18.0167 8.39727 18.3065C8.88163 18.5962 9.43537 18.7495 9.99977 18.75Z" fill="#CAC9C9"/>
</svg>

<svg xmlns="http://www.w3.org/2000/svg" width="20" height="20" fill="none" viewBox="0 0 20 20"><path fill="#CAC9C9" d="m17.19 13.332-.19-.231c-.86-1.04-1.38-1.667-1.38-4.61 0-1.523-.364-2.773-1.082-3.71-.53-.693-1.246-1.218-2.19-1.607a.117.117 0 0 1-.032-.026C11.976 2.011 11.048 1.25 10 1.25c-1.048 0-1.976.761-2.316 1.897a.122.122 0 0 1-.031.025C5.45 4.08 4.38 5.818 4.38 8.49c0 2.944-.519 3.571-1.38 4.61l-.19.231a1.374 1.374 0 0 0-.182 1.47c.241.508.755.823 1.341.823h12.066c.584 0 1.094-.315 1.336-.82a1.375 1.375 0 0 0-.18-1.472ZM10 18.75a3.128 3.128 0 0 0 2.751-1.646.157.157 0 0 0-.138-.229H7.387a.156.156 0 0 0-.138.23 3.128 3.128 0 0 0 2.75 1.645Z"/></svg>
